X:1
T:Land of the Unsetting Sun
T:Land of the Unsetting Sun
T:Charles Hutchinson Gabriel
T:William Clark Martin, 1909
T:Public Domain Courtesy of the Cyber Hymnal™
T:Public Domain Courtesy of the Cyber Hymnal™
C:Charles Hutchinson Gabriel
Z:Public Domain
Z:Courtesy of the Cyber Hymnal™
%%score ( 1 2 ) ( 3 4 )
L:1/8
Q:1/4=122
M:6/4
K:G
V:1 treble 
V:2 treble 
V:3 bass 
V:4 bass 
V:1
 [DB]4 [CA]2 [B,G]4 [CF][DG] | [CA]2 [CG]2 [CE]2 [B,D]4 [G,B,][A,C] | %2
w: 1.~Some sweet day I shall|en- ter a place, When the|
w: 2.~Yes, the bur- dens of|life can be borne, When I|
w: 3.~I can peace- ful- ly|wel- come the night When the|
w: 4.~O what joy! mor- tal|tongue can- not tell, With e-|
 [B,D]2 [DG]2 [DA]2 [DB]2 [DA]2 [^CG]2 | A6- [=CA]4 [B,G][CA] | %4
w: work of my life shall be|done; A ~ place|
w: think of the prize to be|won; Of the beau-|
w: hours of my life shall be|run; It will bring|
w: ter- ni- ty on- ly be-|gun, One an- oth-|
 [DB]3 [^C^A] [DB]2 [B,G]2 [=CF]2 [DG]2 | [CA]2 [CG]2 [CE]2 [B,D]4 [DG][EA] | %6
w: * that is filled with His|mar- vel- ous grace, In the|
w: * ti- ful robe and the|crown to be worn, In the|
w: * me no grief, but su-|per- nal de- light, In the|
w: * er to meet, with the|Sav- ior to dwell, In the|
 [DB]4 [DB][DB] [CA]4 [CG][CA] | [B,G]6- [B,G]4 ||"^Refrain" [DB]>[Dc] | %9
w: land of the un- set- ting|sun. *||
w: land of the un- set- ting|sun. *|I shall|
w: land of the un- set- ting|sun. *||
w: land of the un- set- ting|sun. *||
 [Gd]4 [Ge][Gd] [GB]2 [DA]2 [DG]2 | B6- [GB]4 [GB][GB] | c2 c2 c2 [G^c]2 c2 [Gc]2 | %12
w: |||
w: dwell in the land of de-|light, When my jour-|* ney on earth has been|
w: |||
w: |||
 d6- [Ad]4 [GB][Gc] | [Gd]4 [Ge][Gd] [DB]4 [CA][CB] | [B,G]2 [CE]2 [CG]2 [B,D]4 [DG][EA] | %15
w: |||
w: run; In the land|* where there com- eth no|sor- row, no night, In the|
w: |||
w: |||
 [DB]4 [DB][DB] [CA]4 [CG][CA] | [B,G]12 |] %17
w: ||
w: land of the un- set- ting|sun.|
w: ||
w: ||
V:2
 x12 | x12 | x12 | D4 ^C2 x6 | x12 | x12 | x12 | x10 || x2 | x12 | G2 G2 G2 x6 | G6 x6 | %12
 F2 F2 G2 x6 | x12 | x12 | x12 | x12 |] %17
V:3
 [G,,G,]4 [G,,G,]2 [G,,D,]4 [A,,D,][B,,G,] | [C,E,]2 [C,E,]2 [C,G,]2 [G,,G,]4 [G,,D,][G,,D,] | %2
w: ~ ~ ~ ~ ~|~ ~ ~ ~ ~ ~|
 [G,,G,]2 [B,,G,]2 [D,F,]2 G,2 [F,A,]2 [E,A,]2 | ([D,F,]4 [E,G,]2 [D,F,]4) [G,,G,][G,,G,] | %4
w: ~ ~ ~ ~ ~ ~|~ * * ~ ~|
 [G,,G,]3 [G,,G,] [G,,G,]2 [G,,D,]2 [A,,D,]2 [B,,G,]2 | %5
w: ~ ~ ~ ~ ~ ~|
 [C,E,]2 [C,E,]2 [C,G,]2 [G,,G,]4 [B,,G,][C,G,] | [D,G,]4 [D,G,][D,G,] [D,F,]4 [D,E,][D,F,] | %7
w: ~ ~ ~ ~ ~ ~|~ ~ ~ ~ ~ ~|
 [G,,D,G,]6- [G,,D,G,]4 || G,>[G,A,] | [G,B,]4 [G,C][G,B,] [G,D]2 [G,C]2 [G,B,]2 | %10
w: ~ *|~ ~|~ ~ ~ ~ ~ ~|
 [G,D]2 [G,D]2 [G,D]2 [G,D]4 [=F,D][F,D] | [E,D]6 [A,E]4 [A,,A,]2 | %12
w: ~ of de- light ~ ~|jour- ney on|
 [D,A,]2 [D,A,]2 [D,B,]2 [D,C]4 [G,D][G,A,] | [G,B,]4 [G,C][G,B,] G,4 [D,F,][D,F,] | %14
w: earth has been run; * *||
 [E,G,]2 [C,G,]2 [E,G,]2 G,4 [B,,G,][C,G,] | [D,G,]4 [D,G,][D,G,] [D,F,]4 [D,E,][D,F,] | %16
w: ||
 [G,,D,G,]12 |] %17
w: |
V:4
 x12 | x12 | x6 G,2 x4 | x12 | x12 | x12 | x12 | x10 || G,3/2 x/ | x12 | x12 | x12 | x12 | %13
 x6 G,4 x2 | x6 G,4 x2 | x12 | x12 |] %17

